X:1
T:Ballet
T:Ballet
T:Wolfgang Amadeus Mozart
C:Wolfgang Amadeus Mozart
%%score 1 2
L:1/8
Q:1/4=90
M:3/4
K:F
V:1 treble 
V:2 bass 
V:1
"^Andantino" c f2 a/g/ g/f/e/f/ | c g2 b/a/ a/g/^f/g/ | aa/=f/ bb/g/ c'/a/g/f/ | %3
 ee/c/ ff/d/ g/e/d/c/ | c f2 a/g/ g/f/e/f/ | c g2 b/a/ a/g/^f/g/ | aa/=f/ bb/g/ c'f | %7
 a/g/f/e/ e2 f2 :: g3/2a/4b/4 c'f g/f/e/f/ | a/g/g/f/ f/e/e/d/ ec | g3/2a/4b/4 c'f g/f/e/f/ | %11
 [fa]4 [eg] z | c f2 a/g/ g/f/e/f/ | c g2 b/a/ a/g/^f/g/ | aa/=f/ bb/g/ c'f | a/g/f/e/ e2 f2 :| %16
V:2
 [F,A,]C[F,A,]C[F,A,]C | [E,B,]C[E,B,]C[E,B,]C | [F,A,]C[F,G,]C[F,A,]C | C,CD,CE,[B,C] | %4
 [F,A,]C[F,A,]C[F,A,]C | [E,B,]C[E,B,]C[E,B,]C | [F,A,]CG,CA,[D,D] | %7
 [B,,B,][C,B,B,] [C,G,B,]2 [F,A,]2 :: [B,C-]2 [A,C] z D2 | [CE]2 z2 z2 | [B,C-]2 [A,C] z [D,=B,]2 | %11
 C,CC,C C,/C/_B,/G,/ | [F,A,]C[F,A,]C[F,A,]C | [E,B,]C[E,B,]C[E,B,]C | [F,A,]CG,CA,[D,D] | %15
 [B,,B,][C,B,B,] [C,G,B,]2 [F,A,]2 :| %16

